( Made using CamBam - http://www.cambam.co.uk )
( Drawing1.Fraise 5/30/2022 7:38:14 PM )
( T0 : 5.0 )
G21 G90  G40
( T0 : 5.0 )
T0 M6
( Drawing1.Fraise.nc )
( Made using CamBam - http://www.cambam.co.uk )
( Drawing1 5/24/2022 7:27:07 PM )
( T0 : 2.0 )
G21 G90 G64 G40
G0 Z6.0
( T0 : 2.0 )
T0 M6
( Perçage1 )
G17
M3 S24000
G0 X249.603 Y7.0
G0 Z6.0
G0 X251.103 Y7.0
G0 Z3.0
G1 F100.0 Z2.0
G2 F240.0 X248.853 Y5.701 Z1.9333 I-1.5 J0.0
G2 Y8.299 Z1.8667 I0.75 J1.299
G2 X251.103 Y7.0 Z1.8 I0.75 J-1.299
G2 X248.853 Y5.701 Z1.7333 I-1.5 J0.0
G2 Y8.299 Z1.6667 I0.75 J1.299
G2 X251.103 Y7.0 Z1.6 I0.75 J-1.299
G2 X248.853 Y5.701 Z1.5333 I-1.5 J0.0
G2 Y8.299 Z1.4667 I0.75 J1.299
G2 X251.103 Y7.0 Z1.4 I0.75 J-1.299
G2 X248.853 Y5.701 Z1.3333 I-1.5 J0.0
G2 Y8.299 Z1.2667 I0.75 J1.299
G2 X251.103 Y7.0 Z1.2 I0.75 J-1.299
G2 X248.853 Y5.701 Z1.1333 I-1.5 J0.0
G2 Y8.299 Z1.0667 I0.75 J1.299
G2 X251.103 Y7.0 Z1.0 I0.75 J-1.299
G2 X248.853 Y5.701 Z0.9333 I-1.5 J0.0
G2 Y8.299 Z0.8667 I0.75 J1.299
G2 X251.103 Y7.0 Z0.8 I0.75 J-1.299
G2 X248.853 Y5.701 Z0.7333 I-1.5 J0.0
G2 Y8.299 Z0.6667 I0.75 J1.299
G2 X251.103 Y7.0 Z0.6 I0.75 J-1.299
G2 X248.853 Y5.701 Z0.5333 I-1.5 J0.0
G2 Y8.299 Z0.4667 I0.75 J1.299
G2 X251.103 Y7.0 Z0.4 I0.75 J-1.299
G2 X248.853 Y5.701 Z0.3333 I-1.5 J0.0
G2 Y8.299 Z0.2667 I0.75 J1.299
G2 X251.103 Y7.0 Z0.2 I0.75 J-1.299
G2 X248.853 Y5.701 Z0.1333 I-1.5 J0.0
G2 Y8.299 Z0.0667 I0.75 J1.299
G2 X251.103 Y7.0 Z0.0 I0.75 J-1.299
G2 X248.853 Y5.701 I-1.5 J0.0
G2 Y8.299 I0.75 J1.299
G2 X251.103 Y7.0 I0.75 J-1.299
G0 Z6.0
G0 X454.6007
G0 Z3.0
G1 F100.0 Z2.0
G2 F240.0 X452.3507 Y5.701 Z1.9333 I-1.5 J0.0
G2 Y8.299 Z1.8667 I0.75 J1.299
G2 X454.6007 Y7.0 Z1.8 I0.75 J-1.299
G2 X452.3507 Y5.701 Z1.7333 I-1.5 J0.0
G2 Y8.299 Z1.6667 I0.75 J1.299
G2 X454.6007 Y7.0 Z1.6 I0.75 J-1.299
G2 X452.3507 Y5.701 Z1.5333 I-1.5 J0.0
G2 Y8.299 Z1.4667 I0.75 J1.299
G2 X454.6007 Y7.0 Z1.4 I0.75 J-1.299
G2 X452.3507 Y5.701 Z1.3333 I-1.5 J0.0
G2 Y8.299 Z1.2667 I0.75 J1.299
G2 X454.6007 Y7.0 Z1.2 I0.75 J-1.299
G2 X452.3507 Y5.701 Z1.1333 I-1.5 J0.0
G2 Y8.299 Z1.0667 I0.75 J1.299
G2 X454.6007 Y7.0 Z1.0 I0.75 J-1.299
G2 X452.3507 Y5.701 Z0.9333 I-1.5 J0.0
G2 Y8.299 Z0.8667 I0.75 J1.299
G2 X454.6007 Y7.0 Z0.8 I0.75 J-1.299
G2 X452.3507 Y5.701 Z0.7333 I-1.5 J0.0
G2 Y8.299 Z0.6667 I0.75 J1.299
G2 X454.6007 Y7.0 Z0.6 I0.75 J-1.299
G2 X452.3507 Y5.701 Z0.5333 I-1.5 J0.0
G2 Y8.299 Z0.4667 I0.75 J1.299
G2 X454.6007 Y7.0 Z0.4 I0.75 J-1.299
G2 X452.3507 Y5.701 Z0.3333 I-1.5 J0.0
G2 Y8.299 Z0.2667 I0.75 J1.299
G2 X454.6007 Y7.0 Z0.2 I0.75 J-1.299
G2 X452.3507 Y5.701 Z0.1333 I-1.5 J0.0
G2 Y8.299 Z0.0667 I0.75 J1.299
G2 X454.6007 Y7.0 Z0.0 I0.75 J-1.299
G2 X452.3507 Y5.701 I-1.5 J0.0
G2 Y8.299 I0.75 J1.299
G2 X454.6007 Y7.0 I0.75 J-1.299
G0 Z6.0
G0 X21.5
G0 Z3.0
G1 F100.0 Z2.0
G2 F240.0 X19.25 Y5.701 Z1.9333 I-1.5 J0.0
G2 Y8.299 Z1.8667 I0.75 J1.299
G2 X21.5 Y7.0 Z1.8 I0.75 J-1.299
G2 X19.25 Y5.701 Z1.7333 I-1.5 J0.0
G2 Y8.299 Z1.6667 I0.75 J1.299
G2 X21.5 Y7.0 Z1.6 I0.75 J-1.299
G2 X19.25 Y5.701 Z1.5333 I-1.5 J0.0
G2 Y8.299 Z1.4667 I0.75 J1.299
G2 X21.5 Y7.0 Z1.4 I0.75 J-1.299
G2 X19.25 Y5.701 Z1.3333 I-1.5 J0.0
G2 Y8.299 Z1.2667 I0.75 J1.299
G2 X21.5 Y7.0 Z1.2 I0.75 J-1.299
G2 X19.25 Y5.701 Z1.1333 I-1.5 J0.0
G2 Y8.299 Z1.0667 I0.75 J1.299
G2 X21.5 Y7.0 Z1.0 I0.75 J-1.299
G2 X19.25 Y5.701 Z0.9333 I-1.5 J0.0
G2 Y8.299 Z0.8667 I0.75 J1.299
G2 X21.5 Y7.0 Z0.8 I0.75 J-1.299
G2 X19.25 Y5.701 Z0.7333 I-1.5 J0.0
G2 Y8.299 Z0.6667 I0.75 J1.299
G2 X21.5 Y7.0 Z0.6 I0.75 J-1.299
G2 X19.25 Y5.701 Z0.5333 I-1.5 J0.0
G2 Y8.299 Z0.4667 I0.75 J1.299
G2 X21.5 Y7.0 Z0.4 I0.75 J-1.299
G2 X19.25 Y5.701 Z0.3333 I-1.5 J0.0
G2 Y8.299 Z0.2667 I0.75 J1.299
G2 X21.5 Y7.0 Z0.2 I0.75 J-1.299
G2 X19.25 Y5.701 Z0.1333 I-1.5 J0.0
G2 Y8.299 Z0.0667 I0.75 J1.299
G2 X21.5 Y7.0 Z0.0 I0.75 J-1.299
G2 X19.25 Y5.701 I-1.5 J0.0
G2 Y8.299 I0.75 J1.299
G2 X21.5 Y7.0 I0.75 J-1.299
( Contour1 )
S24000
G0 Z6.0
G0 X493.9829 Y14.8157
G0 Z1.2
G1 F100.0 Z0.0
G1 F240.0 X513.3132 Y117.9107
G1 X513.5897 Y119.385 Z3.0
G1 X513.9582 Y121.3508
G1 X514.2347 Y122.8251 Z0.0
G1 X523.9829 Y174.8157
G3 X523.0001 Y176.0 I-0.9829 J0.1843
G1 X366.1135
G1 X364.6135 Z3.0
G1 X363.0
G3 X362.6135 Y175.9223 I0.0 J-1.0
G3 X362.176 Y175.5665 Z1.8722 I0.3865 J-0.9223
G1 X361.1135 Y174.0211 Z0.0
G1 X259.349 Y26.0
G1 X176.5
G1 X175.0 Z3.0
G1 X173.0
G1 X171.5 Z0.0
G1 X30.0
G3 X29.658 Y25.9397 I0.0 J-1.0
G1 X15.9871 Y20.9639
G1 X14.5775 Y20.4509 Z3.0
G1 X12.6981 Y19.7668
G1 X11.2886 Y19.2538 Z0.0
G1 X-0.342 Y15.0206
G3 X-1.0 Y14.0809 I0.342 J-0.9397
G1 Y0.0
G3 X0.0 Y-1.0 I1.0 J0.0
G1 X183.3252
G1 X184.8252 Z3.0
G1 X186.8252
G1 X188.3252 Z0.0
G1 X398.1084
G1 X399.6084 Z3.0
G1 X401.6084
G1 X403.1084 Z0.0
G1 X486.0
G3 X487.0 Y0.0 I0.0 J1.0
G1 Y14.0
G1 X493.0
G3 X493.9829 Y14.8157 I0.0 J1.0
G0 Z6.0
M5
M30
M30
